qaazqaaz/images/landing/shapes/square15x15.svg

<?xml version="1.0" encoding="UTF-8"?>
<svg width="15px" height="15px" viewBox="0 0 15 15" version="1.1" xmlns="http://www.w3.org/2000/svg" xmlns:xlink="http://www.w3.org/1999/xlink">
    <!-- Generator: Sketch 47 (45396) - http://www.bohemiancoding.com/sketch -->
    <title>Rectangle 7 Copy 3</title>
    <desc>Created with Sketch.</desc>
    <defs></defs>
    <g id="Page-1" stroke="none" stroke-width="1" fill="none" fill-rule="evenodd">
        <g id="Artboard-Copy" transform="translate(-133.000000, -125.000000)" fill="#000000">
            <path d="M135.142857,125.238095 C136.333333,125.119048 139.579078,125 140.5,125 C141.463804,125 144.666667,125.119048 145.857143,125.238095 C147.047619,125.357143 147.642857,125.952381 147.761905,127.142857 C147.880952,128.333333 148,131.530997 148,132.5 C148,133.472676 147.880952,136.666667 147.761905,137.857143 C147.642857,139.047619 147.047619,139.642857 145.857143,139.758791 C144.666667,139.874726 141.477808,140 140.5,140 C139.52403,140 136.355873,139.874726 135.154127,139.758791 C133.952381,139.642857 133.357143,139.047619 133.238095,137.738095 C133.119048,136.428571 133,133.472956 133,132.5 C133,131.503604 133.119048,128.452381 133.238095,127.142857 C133.357143,125.833333 133.952381,125.357143 135.142857,125.238095 Z" id="Rectangle-7-Copy-3"></path>
        </g>
    </g>
</svg>

<svg width="15" height="15" xmlns="http://www.w3.org/2000/svg"><title>Rectangle 7 Copy 3</title><g id="Page-1" fill="none" fill-rule="evenodd"><g id="Artboard-Copy" transform="translate(-133 -125)" fill="#000"><path d="M135.143 125.238c1.19-.119 4.436-.238 5.357-.238.964 0 4.167.119 5.357.238 1.19.12 1.786.714 1.905 1.905.119 1.19.238 4.388.238 5.357 0 .973-.119 4.167-.238 5.357-.12 1.19-.714 1.786-1.905 1.902-1.19.116-4.38.241-5.357.241-.976 0-4.144-.125-5.346-.241-1.202-.116-1.797-.711-1.916-2.02-.119-1.31-.238-4.266-.238-5.239 0-.996.119-4.048.238-5.357.12-1.31.714-1.786 1.905-1.905z" id="Rectangle-7-Copy-3"/></g></g></svg>
